X:1
T:Title
%%score { ( 1 3 ) | 2 }
L:1/8
M:4/4
K:Eb
V:1 treble nm="Grand Piano"
V:3 treble 
V:2 bass 
V:1
 z4 z2[Q:1/4=100] [EG]2 | [DG]3 [DF] [B,E]2 [DF]2 | G4 G2 B2 | B3 A A2 G2 |[M:3/4] [DF]6 | %5
[M:1/4] F2 |[M:4/4] F3 G A2 [Ac]2 | [B,Ac]4 [B,GB]2 [B,FA]2 | [B,EG]3 [Ge] d2 c2 |[M:3/4] B6 | %10
[M:1/4] [DAB]2 |[M:4/4] [EGB]3 [CEA] [B,EG]2 [A,DF]2 | [A,DF]4 [G,CE]2 [G,CE]2 | [A,CF]3 F _G2 G2 | %14
[M:3/4] G6 |[M:1/4] G2 |[M:4/4] F3 e d2 c2 | B2 [B,EG]2 [G,E]2 [=A,EF]2 | %18
 [B,EG]2 [G,B,E]2 [A,CE]2 [A,DF]2 |[M:3/4] [G,E]6 |] %20
V:2
 z4 z2 [E,B,]2 | [B,,A,]3 [B,,A,] [B,,G,]2 [B,,B,]2 | [E,B,E]4 [E,B,E]2 [G,B,E]2 | %3
 [G,B,E]3 [F,B,D] [F,B,D]2 [E,B,E]2 |[M:3/4] [B,,B,]6 |[M:1/4] [A,B,D]2 | %6
[M:4/4] [A,B,D]3 [G,B,E] [F,B,F]2 [D,B,]2 | D,2 B,,2 C,2 D,2 | E,3 [E,B,] [F,B,F]2 [F,=A,E]2 | %9
[M:3/4] [B,D]2 [A,D]2 [G,E]2 |[M:1/4] F,2 |[M:4/4] E,3 E, E,2 B,,2 | B,,4 C,2 B,,2 | %13
 A,,3[K:treble] [A,C] [A,CE]2 [A,CE]2 |[M:3/4] [G,=B,D]6 |[M:1/4] [G,=B,D]2 | %16
[M:4/4] [A,C]3 [A,CF] [=A,D_G]2 [A,EG]2 | [B,EG]2[K:bass] B,,2 C,2 C,2 | B,,2 B,,2 B,,2 B,,2 | %19
[M:3/4] E,6 |] %20
V:3
 x8 | x8 | x8 | x8 |[M:3/4] x6 |[M:1/4] x2 |[M:4/4] x8 | x8 | x8 |[M:3/4] z2 F2 G2 |[M:1/4] x2 | %11
[M:4/4] x8 | x8 | x8 |[M:3/4] x6 |[M:1/4] x2 |[M:4/4] x8 | x8 | x8 |[M:3/4] x6 |] %20

